X:1
T:Gather Them In
T:George Coles Stebbins
T:Gather Them In
T:Public Domain
T:Public Domain
C:George Coles Stebbins
Z:Public Domain
%%score ( 1 2 ) ( 3 4 )
L:1/8
M:4/4
K:Ab
V:1 treble 
V:2 treble 
V:3 bass 
V:4 bass 
V:1
 [CE][CE] [CE]2 [CE]2 [A,C][CE] | [EA]2 [EB]2 [Ec]2 [Ec][Ac] | [Gd]2 [Ac][Ac] [EB]2 [=DA]2 | %3
w: 1.~Ga- ther them in! for yet|there is room At the|feast that the King has|
w: 2.~Ga- ther them in! for yet|there is room; But our|hearts— how they throb with|
w: 3.~Ga- ther them in! for yet|there is room; ’Tis a|mes- sage from God a-|
 [EB]6 [DE]2 | [CE][CE] [CE]2 [CE]2 [A,C][CE] | [EA]2 [EB]2 [Ec]2 [Fd][Fd] | %6
w: spread; O|ga- ther them in! let His|house be filled, And the|
w: pain; To|think of the ma- ny who|slight the call That may|
w: bove; O|ga- ther them in- to the|fold of grace, And the|
 [Ec]2 [EB][EA] [EB]2 [DG]2 | [CA]6 z2 ||"^Refrain" [Fd]2 [Fd]>[Fd] [Fd]2 [Fd]2 | %9
w: hun- gry and poor be|fed.||
w: ne- ver be heard a-|gain.||
w: arms of the Sav- ior’s|love.||
 [Ec]2 [Ec]>[Ec] [Ec]2 [Ec]2 | [EB]2 [EB][EB] [AB]2 [Ac][AB] | [Ge]6 [Bd]2 | %12
w: |||
w: |||
w: |||
 [Ac]2 [Ac]2 [GB]2 [GB][GB] | [FA]2 [=EG]2 F2 [B,F]2 | [CE][CE] [CE]2 [DF]2 [DG]2 | [CA]6 z2 |] %16
w: ||||
w: ||||
w: ||||
V:2
 x8 | x8 | x8 | x8 | x8 | x8 | x8 | x8 || x8 | x8 | x8 | x8 | x8 | x4 F2 x2 | x8 | x8 |] %16
V:3
 [A,,A,][A,,A,] [A,,A,]2 [A,,A,]2 [A,,E,][A,,A,] | [C,A,]2 [E,G,]2 A,2 [A,E][A,E] | %2
w: ~ ~ ~ ~ ~ ~|~ ~ ~ ~ ~|
 [B,E]2 [A,E][A,E] [G,E]2 [F,B,]2 | [E,G,]6 [E,G,]2 | %4
w: ~ ~ ~ ~ ~|~ ~|
 [A,,A,][A,,A,] [A,,A,]2 [A,,A,]2 [A,,E,][A,,A,] | [C,A,]2 [E,G,]2 A,2 [D,A,][D,A,] | %6
w: ~ ~ ~ ~ ~ ~|~ ~ ~ ~ ~|
 [E,A,]2 [E,D][E,C] [E,D]2 [E,B,]2 | [A,,A,]6 z2 || [D,A,]2 [D,A,]>[D,A,] [D,A,]2 [D,A,]2 | %9
w: ~ ~ ~ ~ Out|in|the high- way, out in|
 A,2 A,>A, A,2 A,2 | [G,B,]2 [G,B,][G,B,] [F,=D]2 [F,D][F,D] | [E,E]6 [E,E]2 | %12
w: the by- way, Out in|Go forth, go forth, with a|lov- ing|
 [A,E]2 [A,E]2 [E,E]2 [E,D][E,D] | [F,C]2 [C,B,]2 [D,A,]2 [=D,A,]2 | %14
w: heart, And ga- ther the|wand- erers in! *|
 [E,A,][E,A,] [E,A,]2 [E,G,]2 [E,B,]2 | [A,,A,]6 z2 |] %16
w: ||
V:4
 x8 | x4 A,2 x2 | x8 | x8 | x8 | x4 A,2 x2 | x8 | x8 || x8 | A,2 A,>A, A,2 A,2 | x8 | x8 | x8 | %13
w: |~||||~||||the dark paths of sin,||||
 x8 | x8 | x8 |] %16
w: |||

